__todo__/goland.svg

<svg height="256" preserveAspectRatio="xMidYMid" viewBox="0 0 256 256" width="256" xmlns="http://www.w3.org/2000/svg" xmlns:xlink="http://www.w3.org/1999/xlink"><linearGradient id="a"><stop offset="0" stop-color="#087cfa"/><stop offset=".02" stop-color="#0d7bfa"/><stop offset=".37" stop-color="#5566f9"/><stop offset=".66" stop-color="#8a57f8"/><stop offset=".88" stop-color="#ab4ef7"/><stop offset="1" stop-color="#b74af7"/></linearGradient><linearGradient id="b" x1="63.100875%" x2="28.874268%" xlink:href="#a" y1="29.811449%" y2="83.709869%"/><linearGradient id="c" x1="49.12442%" x2="74.872125%" xlink:href="#a" y1="38.464521%" y2="4.950239%"/><linearGradient id="d" x1="13.895833%" x2="86.03125%" y1="71.062993%" y2="34.549429%"><stop offset="0" stop-color="#087cfa"/><stop offset=".1" stop-color="#1598d3"/><stop offset=".22" stop-color="#23b6aa"/><stop offset=".35" stop-color="#2dcc8b"/><stop offset=".46" stop-color="#35dd74"/><stop offset=".57" stop-color="#39e767"/><stop offset=".67" stop-color="#3bea62"/></linearGradient><path d="m225.493333 99.0133333 30.506667 67.6533337-52.213333 89.333333-32.16-78.08z" fill="url(#b)"/><path d="m171.626667 177.92 32.16 78.08-80.906667-27.813333z" fill="#b74af7"/><path d="m180.346667 72.2933333-16.586667-72.2933333h-91.9733333l-71.7866667 109.813333 20.7733333 50.453334-20.7733333 46.053333 148.666667-126.48z" fill="url(#c)"/><path d="m256 54.3466667-107.333333 25.4933333-148.666667 126.48 95.8933333 49.68 75.7333337-78.08z" fill="url(#d)"/><path d="m48 48h160v160h-160z"/><path d="m63.0133333 178h59.9999997v10h-59.9999997zm-4.5070507-75.84v-.186667c-.0304253-9.1266341 3.6236748-17.8793862 10.1346892-24.2749392 6.5110143-6.395553 15.3277389-9.8924777 24.4523615-9.6983938 9.4989757-.5006268 18.8152547 2.7452297 25.9466667 9.04l-9.146667 11.04c-4.637398-4.4345384-10.8378875-6.8591503-17.253333-6.7466667-10.4533333 0-18.6273173 8.9637334-18.9500954 19.8636327l-.0099046.856367c0 11.847693 7.977426 20.591628 19.3284371 20.923551l.6715629.009783c4.85551.142753 9.632637-1.247465 13.653333-3.973334v-9.493333h-14.613333v-12.5333333h28.613333v28.6400003c-7.821137 6.783492-17.833634 10.506209-28.1866663 10.480273-20.5066667 0-34.6403841-14.42694-34.6403841-33.94694zm68.9603844 0v-.186667c.031499-9.2103777 3.78673-18.0164849 10.411517-24.4152551 6.624786-6.3987703 15.555891-9.8461828 24.761816-9.5580779 20.051787 0 34.535247 14.7367136 34.950845 33.107214l.009208.999453c.01146 9.233384-3.721148 18.076908-10.344931 24.509717-6.387219 6.203065-14.936449 9.653371-23.814122 9.639496l-.987667-.01588c-20.373333-.133333-34.986666-15.306667-34.986666-34.08zm54.96 0v-.186667c.165703-5.407613-1.863514-10.6522172-5.625766-14.5400446s-8.937429-6.0880854-14.347568-6.100178c-5.370024-.0178675-10.515496 2.1533441-14.249277 6.0129258-3.547091 3.6666027-5.529061 8.5560829-5.550375 13.6369488l.012986.990348c-.187805 5.428315 1.834395 10.70063 5.604078 14.611048 3.769682 3.910417 8.964371 6.124421 14.395922 6.135717 5.384661.011906 10.540363-2.177034 14.271621-6.059356 3.731259-3.882322 5.713966-9.120795 5.488379-14.500742z" fill="#fff"/></svg>

<?xml version="1.0" encoding="UTF-8"?>
<svg width="256px" height="256px" viewBox="0 0 256 256" version="1.1" xmlns="http://www.w3.org/2000/svg" preserveAspectRatio="xMidYMid">
    <title>GoLand</title>
    <defs>
        <linearGradient x1="63.100875%" y1="29.811449%" x2="28.8742684%" y2="83.7098692%" id="golandLinearGradient-1">
            <stop stop-color="#087CFA" offset="0%"></stop>
            <stop stop-color="#0D7BFA" offset="2%"></stop>
            <stop stop-color="#5566F9" offset="37%"></stop>
            <stop stop-color="#8A57F8" offset="66%"></stop>
            <stop stop-color="#AB4EF7" offset="88%"></stop>
            <stop stop-color="#B74AF7" offset="100%"></stop>
        </linearGradient>
        <linearGradient x1="49.1244199%" y1="38.4645211%" x2="74.8721245%" y2="4.95023911%" id="golandLinearGradient-2">
            <stop stop-color="#087CFA" offset="0%"></stop>
            <stop stop-color="#0D7BFA" offset="2%"></stop>
            <stop stop-color="#5566F9" offset="37%"></stop>
            <stop stop-color="#8A57F8" offset="66%"></stop>
            <stop stop-color="#AB4EF7" offset="88%"></stop>
            <stop stop-color="#B74AF7" offset="100%"></stop>
        </linearGradient>
        <linearGradient x1="13.8958333%" y1="71.0629926%" x2="86.03125%" y2="34.5494293%" id="golandLinearGradient-3">
            <stop stop-color="#087CFA" offset="0%"></stop>
            <stop stop-color="#1598D3" offset="10%"></stop>
            <stop stop-color="#23B6AA" offset="22%"></stop>
            <stop stop-color="#2DCC8B" offset="35%"></stop>
            <stop stop-color="#35DD74" offset="46%"></stop>
            <stop stop-color="#39E767" offset="57%"></stop>
            <stop stop-color="#3BEA62" offset="67%"></stop>
        </linearGradient>
    </defs>
    <g>
        <polygon fill="url(#golandLinearGradient-1)" points="225.493333 99.0133333 256 166.666667 203.786667 256 171.626667 177.92"></polygon>
        <polygon fill="#B74AF7" points="171.626667 177.92 203.786667 256 122.88 228.186667"></polygon>
        <polygon fill="url(#golandLinearGradient-2)" points="180.346667 72.2933333 163.76 0 71.7866667 0 2.36847579e-15 109.813333 20.7733333 160.266667 0 206.32 148.666667 79.84"></polygon>
        <polygon fill="url(#golandLinearGradient-3)" points="256 54.3466667 148.666667 79.84 0 206.32 95.8933333 256 171.626667 177.92"></polygon>
        <polygon fill="#000000" points="48 48 208 48 208 208 48 208"></polygon>
        <path d="M63.0133333,178 L123.013333,178 L123.013333,188 L63.0133333,188 L63.0133333,178 Z M58.5062826,102.16 L58.5062826,101.973333 C58.4758573,92.8466989 62.1299574,84.0939468 68.6409718,77.6983938 C75.1519861,71.3028408 83.9687107,67.8059161 93.0933333,68 C102.592309,67.4993732 111.908588,70.7452297 119.04,77.04 L109.893333,88.08 C105.255935,83.6454616 99.0554455,81.2208497 92.64,81.3333333 C82.1866667,81.3333333 74.0126827,90.2970667 73.6899046,101.196966 L73.68,102.053333 C73.68,113.901026 81.657426,122.644961 93.0084371,122.976884 L93.68,122.986667 C98.53551,123.12942 103.312637,121.739202 107.333333,119.013333 L107.333333,109.52 L92.72,109.52 L92.72,96.9866667 L121.333333,96.9866667 L121.333333,125.626667 C113.512196,132.410159 103.499699,136.132876 93.1466667,136.10694 C72.64,136.10694 58.5062826,121.68 58.5062826,102.16 Z M127.466667,102.16 L127.466667,101.973333 C127.498166,92.7629553 131.253397,83.9568481 137.878184,77.5580779 C144.50297,71.1593076 153.434075,67.7118951 162.64,68 C182.691787,68 197.175247,82.7367136 197.590845,101.107214 L197.600053,102.106667 C197.611513,111.340051 193.878905,120.183575 187.255122,126.616384 C180.867903,132.819449 172.318673,136.269755 163.441,136.25588 L162.453333,136.24 C142.08,136.106667 127.466667,120.933333 127.466667,102.16 Z M182.426667,102.16 L182.426667,101.973333 C182.59237,96.56572 180.563153,91.3211158 176.800901,87.4332884 C173.038649,83.545461 167.863472,81.345203 162.453333,81.3331104 C157.083309,81.3152429 151.937837,83.4864545 148.204056,87.3460362 C144.656965,91.0126389 142.674995,95.9021191 142.653681,100.982985 L142.666667,101.973333 C142.478862,107.401648 144.501062,112.673963 148.270745,116.584381 C152.040427,120.494798 157.235116,122.708802 162.666667,122.720098 C168.051328,122.732004 173.20703,120.543064 176.938288,116.660742 C180.669547,112.77842 182.652254,107.539947 182.426667,102.16 Z" fill="#FFFFFF"></path>
    </g>
</svg>
